Numix-GalliumOS/64/categories/applications-interfacedesign.svg

<?xml version="1.0" encoding="UTF-8" standalone="no"?>
<svg
   xmlns:dc="http://purl.org/dc/elements/1.1/"
   xmlns:cc="http://creativecommons.org/ns#"
   xmlns:rdf="http://www.w3.org/1999/02/22-rdf-syntax-ns#"
   xmlns:svg="http://www.w3.org/2000/svg"
   xmlns="http://www.w3.org/2000/svg"
   xmlns:sodipodi="http://sodipodi.sourceforge.net/DTD/sodipodi-0.dtd"
   xmlns:inkscape="http://www.inkscape.org/namespaces/inkscape"
   width="64"
   height="64"
   viewBox="0 0 64 64"
   id="svg2"
   version="1.1"
   inkscape:version="0.91 r"
   sodipodi:docname="applications-interfacedesign.svg">
  <metadata
     id="metadata50">
    <rdf:RDF>
      <cc:Work
         rdf:about="">
        <dc:format>image/svg+xml</dc:format>
        <dc:type
           rdf:resource="http://purl.org/dc/dcmitype/StillImage" />
      </cc:Work>
    </rdf:RDF>
  </metadata>
  <defs
     id="defs48" />
  <sodipodi:namedview
     pagecolor="#ffffff"
     bordercolor="#666666"
     borderopacity="1"
     objecttolerance="10"
     gridtolerance="10"
     guidetolerance="10"
     inkscape:pageopacity="0"
     inkscape:pageshadow="2"
     inkscape:window-width="1680"
     inkscape:window-height="1026"
     id="namedview46"
     showgrid="true"
     inkscape:zoom="10.429825"
     inkscape:cx="21.251831"
     inkscape:cy="30.690073"
     inkscape:window-x="0"
     inkscape:window-y="24"
     inkscape:window-maximized="1"
     inkscape:current-layer="svg2">
    <inkscape:grid
       type="xygrid"
       id="grid4200" />
  </sodipodi:namedview>
  <path
     inkscape:connector-curvature="0"
     id="path6"
     d="M 7.6169285,7 56.383072,7 C 56.728551,7 57,7.2755614 57,7.6169287 L 57,56.383072 C 57,56.728551 56.728551,57 56.383072,57 L 7.6169285,57 C 7.2755613,57 6.9999998,56.728551 6.9999998,56.383072 l 0,-48.7661433 C 6.9999998,7.2755614 7.2755613,7 7.6169285,7 Z"
     style="fill:none;stroke:#88b485;stroke-width:1.99999988;stroke-linecap:round;stroke-miterlimit:4;stroke-dasharray:none" />
  <path
     style="fill:none;stroke:#88b485;stroke-width:2;stroke-linecap:round;stroke-linejoin:round;stroke-miterlimit:4;stroke-dasharray:none"
     d="m 16,28.000003 8,0 L 24,36 16,36 Z"
     id="path10"
     inkscape:connector-curvature="0" />
  <path
     style="fill:none;stroke:#88b485;stroke-width:2;stroke-linecap:round;stroke-linejoin:round;stroke-miterlimit:4;stroke-dasharray:none"
     d="M 48,32.002005 C 48,34.207517 46.207518,36 43.993985,36 41.788469,36 40,34.207517 40,32.002005 c 0,-2.213533 1.788469,-4.002006 3.993985,-4.002006 2.213533,0 4.006015,1.788473 4.006015,4.002006 z"
     id="path12"
     inkscape:connector-curvature="0" />
  <path
     style="fill:none;stroke:#88b485;stroke-width:2;stroke-linecap:round;stroke-linejoin:round;stroke-miterlimit:4;stroke-dasharray:none"
     d="m 17.748971,13.999999 28.509796,0 C 47.226118,13.999999 48,14.879475 48,15.98487 l 0,4.034291 c 0,1.101362 -0.773882,1.980838 -1.741233,1.980838 l -28.509796,0 C 16.781619,21.999999 16,21.120523 16,20.019161 l 0,-4.034291 c 0,-1.105395 0.781619,-1.984871 1.748971,-1.984871 z"
     id="path14"
     inkscape:connector-curvature="0" />
  <path
     style="fill:#88b485;fill-rule:evenodd;stroke-width:2;stroke-miterlimit:4;stroke-dasharray:none"
     d="m 45.75,32 c 0,0.961268 -0.783267,1.75 -1.753529,1.75 C 43.033266,33.75 42.25,32.961268 42.25,32 c 0,-0.961268 0.783266,-1.75 1.746471,-1.75 0.970262,0 1.753529,0.788732 1.753529,1.75 z"
     id="path16"
     inkscape:connector-curvature="0" />
  <path
     style="fill:none;stroke:#88b485;stroke-width:2;stroke-linecap:round;stroke-linejoin:round;stroke-miterlimit:4;stroke-dasharray:none"
     d="m 36.999999,14.000001 0,7.999998 8.58699,0 c 1.343799,0 2.41301,-1.096775 2.41301,-2.467742 l 0,-3.044354 c 0,-1.370966 -1.069211,-2.487902 -2.41301,-2.487902 z"
     id="path22"
     inkscape:connector-curvature="0" />
  <path
     style="fill:none;stroke:#88b485;stroke-width:2;stroke-linecap:round;stroke-linejoin:round;stroke-miterlimit:4;stroke-dasharray:none"
     d="m 16,42.000001 8,0 L 24,50 16,50 Z"
     id="path24"
     inkscape:connector-curvature="0" />
  <path
     inkscape:connector-curvature="0"
     id="path26"
     d="M 48,45.997995 C 48,48.211528 46.207518,50 43.993985,50 41.788469,50 40,48.211528 40,45.997995 c 0,-2.205513 1.788469,-3.997994 3.993985,-3.997994 2.213533,0 4.006015,1.792481 4.006015,3.997994 z"
     style="fill:none;stroke:#88b485;stroke-width:2;stroke-linecap:round;stroke-linejoin:round;stroke-miterlimit:4;stroke-dasharray:none" />
  <path
     style="fill:#88b485;stroke-width:2;stroke-miterlimit:4;stroke-dasharray:none"
     inkscape:connector-curvature="0"
     id="path30"
     d="m 18,30 2,0 0,2 -2,0 z" />
  <path
     style="fill:#88b485;stroke-width:2;stroke-miterlimit:4;stroke-dasharray:none"
     inkscape:connector-curvature="0"
     id="path34"
     d="m 20,32 2,0 0,2 -2,0 z" />
  <path
     style="fill:#88b485;stroke-width:2;stroke-miterlimit:4;stroke-dasharray:none"
     inkscape:connector-curvature="0"
     id="path40"
     d="m 41,17 1,0 0,1 -1,0 z" />
  <path
     style="fill:#88b485;stroke-width:2;stroke-miterlimit:4;stroke-dasharray:none"
     inkscape:connector-curvature="0"
     id="path42"
     d="m 43,17 1,0 0,1 -1,0 z" />
  <path
     style="fill:#88b485;stroke-width:2;stroke-miterlimit:4;stroke-dasharray:none"
     inkscape:connector-curvature="0"
     id="path44"
     d="m 42,18 1,0 0,1 -1,0 z" />
</svg>

<svg xmlns="http://www.w3.org/2000/svg" viewBox="0 0 64 64">
 <path d="m 7.617 7 48.766 0 c 0.345 0 0.617 0.276 0.617 0.617 l 0 48.766 c 0 0.345 -0.271 0.617 -0.617 0.617 l -48.766 0 c -0.341 0 -0.617 -0.271 -0.617 -0.617 l 0 -48.766 c 0 -0.341 0.276 -0.617 0.617 -0.617" style="stroke-dasharray:none;fill:none;stroke-miterlimit:4;stroke:#88b485;stroke-linecap:round;stroke-width:2"/>
 <path d="m 16 28 8 0 l 0 8 -8 0" style="stroke-dasharray:none;fill:none;stroke-miterlimit:4;stroke:#88b485;stroke-linecap:round;stroke-linejoin:round;stroke-width:2"/>
 <path d="m 48 32 c 0 2.206 -1.792 3.998 -4.01 3.998 -2.206 0 -3.994 -1.792 -3.994 -3.998 c 0 -2.214 1.788 -4 3.994 -4 2.214 0 4.01 1.788 4.01 4 z" style="stroke-dasharray:none;fill:none;stroke-miterlimit:4;stroke:#88b485;stroke-linecap:round;stroke-linejoin:round;stroke-width:2"/>
 <path d="m 17.749 14 28.51 0 c 0.967 0 1.741 0.879 1.741 1.985 l 0 4.03 c 0 1.101 -0.774 1.981 -1.741 1.981 l -28.51 0 c -0.967 0 -1.749 -0.879 -1.749 -1.981 l 0 -4.03 c 0 -1.105 0.782 -1.985 1.749 -1.985 z" style="stroke-dasharray:none;fill:none;stroke-miterlimit:4;stroke:#88b485;stroke-linecap:round;stroke-linejoin:round;stroke-width:2"/>
 <path d="m 45.75 32 c 0 0.961 -0.783 1.75 -1.754 1.75 c -0.963 0 -1.746 -0.789 -1.746 -1.75 c 0 -0.961 0.783 -1.75 1.746 -1.75 0.97 0 1.754 0.789 1.754 1.75 z" style="stroke-dasharray:none;fill:#88b485;stroke-miterlimit:4;fill-rule:evenodd;stroke-width:2"/>
 <path d="m 37 14 0 8 8.587 0 c 1.344 0 2.413 -1.097 2.413 -2.468 l 0 -3.044 c 0 -1.371 -1.069 -2.488 -2.413 -2.488 z" style="stroke-dasharray:none;fill:none;stroke-miterlimit:4;stroke:#88b485;stroke-linecap:round;stroke-linejoin:round;stroke-width:2"/>
 <path d="m 16 42 8 0 l 0 8 -8 0" style="stroke-dasharray:none;fill:none;stroke-miterlimit:4;stroke:#88b485;stroke-linecap:round;stroke-linejoin:round;stroke-width:2"/>
 <path d="m 48 45.998 c 0 2.214 -1.792 4 -4.01 4 -2.206 0 -3.994 -1.788 -3.994 -4 c 0 -2.206 1.788 -3.998 3.994 -3.998 2.214 0 4.01 1.792 4.01 3.998 z" style="stroke-dasharray:none;fill:none;stroke-miterlimit:4;stroke:#88b485;stroke-linecap:round;stroke-linejoin:round;stroke-width:2"/>
 <path d="m 18 30 2 0 0 2 -2 0 z" style="stroke-dasharray:none;fill:#88b485;stroke-miterlimit:4;stroke-width:2"/>
 <path d="m 20 32 2 0 0 2 -2 0 z" style="stroke-dasharray:none;fill:#88b485;stroke-miterlimit:4;stroke-width:2"/>
 <path d="m 41 17 1 0 0 1 -1 0 z" style="stroke-dasharray:none;fill:#88b485;stroke-miterlimit:4;stroke-width:2"/>
 <path d="m 43 17 1 0 0 1 -1 0 z" style="stroke-dasharray:none;fill:#88b485;stroke-miterlimit:4;stroke-width:2"/>
 <path d="m 42 18 1 0 0 1 -1 0 z" style="stroke-dasharray:none;fill:#88b485;stroke-miterlimit:4;stroke-width:2"/>
</svg>
